projects/vfh1/img/icons-service/towel.svg

<svg viewBox="0 0 33 28" fill="none" xmlns="http://www.w3.org/2000/svg">
<path d="M29.4489 5.27841C29.2173 5.27859 28.9887 5.33086 28.7798 5.43141C28.5708 5.53197 28.3869 5.67826 28.2414 5.85957H25.4554C24.9805 5.27801 24.3833 4.8096 23.707 4.48807C23.0306 4.16653 22.2919 3.99985 21.5439 4.00002H6.59121C6.09828 3.9983 5.61197 4.11425 5.17221 4.33836C5.0142 4.41777 4.86345 4.51104 4.72171 4.61709C4.49837 4.78325 4.29777 4.9783 4.12509 5.19721L4.10182 5.22688C4.09845 5.23157 4.09483 5.23599 4.09121 5.24068L4.08811 5.2451C3.95627 5.41823 3.84256 5.60461 3.74881 5.80127L3.7351 5.82964C3.54062 5.59884 3.28369 5.42989 2.99556 5.34332C2.70743 5.25675 2.40051 5.2563 2.11213 5.34202C1.82375 5.42774 1.56633 5.59594 1.37118 5.82617C1.17602 6.05639 1.05155 6.33872 1.01288 6.63883C0.974217 6.93893 1.02303 7.24387 1.15339 7.51657C1.28374 7.78927 1.49003 8.01798 1.74715 8.17488C2.00427 8.33178 2.30115 8.41012 2.6017 8.40036C2.90224 8.3906 3.19349 8.29318 3.44003 8.11993V14.3203C3.44037 14.5956 3.54917 14.8594 3.74256 15.0541C3.93594 15.2487 4.19814 15.3582 4.47163 15.3585H6.39053V22.2093C6.39108 22.4715 6.49479 22.7227 6.67897 22.908C6.86315 23.0934 7.11279 23.1978 7.37325 23.1983H25.6305C25.8909 23.1978 26.1406 23.0934 26.3248 22.908C26.5089 22.7227 26.6126 22.4715 26.6132 22.2093V9.10267C26.6135 8.66993 26.5589 8.23894 26.4508 7.82011H28.2404C28.4049 8.0255 28.6185 8.18558 28.8612 8.28542C29.1039 8.38525 29.3677 8.42158 29.6281 8.39101C29.8885 8.36044 30.137 8.26397 30.3503 8.1106C30.5636 7.95724 30.7349 7.75198 30.848 7.51398C30.9612 7.27599 31.0126 7.01302 30.9974 6.74962C30.9822 6.48623 30.901 6.231 30.7613 6.00775C30.6216 5.7845 30.4279 5.60053 30.1984 5.47299C29.9689 5.34545 29.711 5.27851 29.4489 5.27841ZM5.83167 5.65084L5.83658 5.65449C5.85055 5.6649 5.86425 5.67557 5.87796 5.6865H4.27069C4.30276 5.63627 4.33612 5.58682 4.37129 5.53841L4.44215 5.51525L4.47991 5.50302C4.50706 5.49469 4.53396 5.48688 4.56085 5.47907L4.58361 5.47257C4.61749 5.4632 4.65085 5.45435 4.68395 5.44654C4.71757 5.43821 4.75067 5.43067 4.783 5.4239C4.80757 5.41895 4.83214 5.41453 4.8567 5.41089C5.2004 5.35869 5.5507 5.44491 5.83167 5.65084ZM2.55325 7.99734C2.35548 7.99743 2.16102 7.9462 1.98866 7.8486C1.8163 7.751 1.67185 7.61033 1.56927 7.44016C1.46669 7.27 1.40943 7.07609 1.40304 6.87716C1.39664 6.67823 1.44131 6.481 1.53274 6.30452C1.62418 6.12803 1.75928 5.97825 1.92501 5.86964C2.09074 5.76103 2.28149 5.69725 2.47886 5.68447C2.67622 5.67168 2.87353 5.71033 3.05172 5.79666C3.22992 5.883 3.38299 6.01412 3.49615 6.17735C3.51457 6.20411 3.53915 6.22598 3.56779 6.24112C3.59643 6.25626 3.62828 6.2642 3.66062 6.26428H6.28657C6.34577 6.39668 6.38039 6.53887 6.38872 6.68381C6.38872 6.70646 6.39053 6.72936 6.39053 6.75226V7.41671H3.66062C3.62835 7.41674 3.59656 7.42458 3.56794 7.43957C3.53931 7.45457 3.51469 7.47627 3.49615 7.50285C3.39002 7.65545 3.24891 7.78006 3.08478 7.86614C2.92065 7.95221 2.73833 7.99722 2.55325 7.99734ZM4.47163 14.9543C4.30461 14.9541 4.14449 14.8873 4.0264 14.7684C3.9083 14.6496 3.84186 14.4884 3.84165 14.3203V7.99318H6.39053V14.9543H4.47163ZM29.4489 7.99734C29.2638 7.99722 29.0815 7.95221 28.9173 7.86614C28.7532 7.78006 28.6121 7.65545 28.506 7.50285L28.446 7.41671H26.3391C26.2031 7.01134 26.0182 6.6243 25.7885 6.26428H28.446L28.506 6.17787C28.6191 6.01466 28.7721 5.88356 28.9503 5.79722C29.1284 5.71088 29.3257 5.67222 29.523 5.68498C29.7203 5.69773 29.911 5.76147 30.0767 5.87004C30.2424 5.97861 30.3775 6.12834 30.469 6.30478C30.5604 6.48121 30.6051 6.67839 30.5987 6.87728C30.5923 7.07616 30.5351 7.27003 30.4326 7.44017C30.33 7.61031 30.1856 7.75097 30.0133 7.84857C29.841 7.94617 29.6466 7.99741 29.4489 7.99734Z" fill="#42474D"/>
<path d="M25.7451 17.2787H7.29776C7.1819 17.2787 7.08777 17.4088 7.08777 17.5715V20.8211C7.08777 20.9827 7.1819 21.1139 7.29776 21.1139H25.7451C25.8612 21.1139 25.9551 20.9838 25.9551 20.8211V17.5715C25.9551 17.4096 25.8612 17.2787 25.7451 17.2787Z" fill="#E2F0FB"/>
<path d="M7.08777 15.7073C7.08777 15.8689 7.1819 16.0001 7.29776 16.0001H25.7451C25.8612 16.0001 25.9551 15.87 25.9551 15.7073C25.9551 15.5446 25.8612 15.4142 25.7451 15.4142H7.29776C7.18242 15.4142 7.08777 15.5454 7.08777 15.7073Z" fill="#E2F0FB"/>
</svg>

<svg viewBox="0 0 33 28" fill="none" xmlns="http://www.w3.org/2000/svg"><path d="M29.449 5.278a1.545 1.545 0 00-1.208.582h-2.786a5.066 5.066 0 00-1.748-1.372A5.035 5.035 0 0021.544 4H6.59a3.101 3.101 0 00-1.87.617 3.17 3.17 0 00-.596.58l-.023.03-.01.014-.004.004c-.132.173-.245.36-.34.556l-.013.029a1.55 1.55 0 00-1.623-.488 1.566 1.566 0 00-.365 2.833A1.544 1.544 0 003.44 8.12v6.2c0 .276.11.54.303.734.193.195.455.304.729.304H6.39v6.851c0 .262.104.514.288.699a.98.98 0 00.694.29H25.63a.98.98 0 00.694-.29.995.995 0 00.288-.699V9.103a5.14 5.14 0 00-.162-1.283h1.79a1.552 1.552 0 001.387.571 1.546 1.546 0 001.22-.877 1.57 1.57 0 00-.65-2.041 1.544 1.544 0 00-.75-.195zm-23.617.373l.005.003a1.6 1.6 0 01.041.032H4.271c.032-.05.065-.1.1-.148l.071-.023.038-.012.08-.024.024-.006a2.726 2.726 0 01.273-.062c.343-.052.694.034.975.24zM2.553 7.997a1.145 1.145 0 01-.984-.557 1.163 1.163 0 01.356-1.57 1.145 1.145 0 011.571.307.201.201 0 00.165.087h2.626c.059.133.093.275.102.42l.002.068v.665H3.66a.2.2 0 00-.165.086 1.154 1.154 0 01-.943.494zm1.919 6.957a.637.637 0 01-.63-.634V7.993H6.39v6.961H4.47zm24.977-6.957a1.146 1.146 0 01-.943-.494l-.06-.086h-2.107a5.243 5.243 0 00-.55-1.153h2.657l.06-.086a1.152 1.152 0 011.017-.493 1.145 1.145 0 01.946.62 1.163 1.163 0 01-.456 1.544 1.144 1.144 0 01-.564.148z" fill="#42474D"/><path d="M25.745 17.279H7.298c-.116 0-.21.13-.21.293v3.25c0 .16.094.292.21.292h18.447c.116 0 .21-.13.21-.293v-3.25c0-.161-.094-.292-.21-.292zM7.088 15.707c0 .162.094.293.21.293h18.447c.116 0 .21-.13.21-.293 0-.162-.094-.293-.21-.293H7.298c-.116 0-.21.131-.21.293z" fill="#E2F0FB"/></svg>
